X: 61
T: No_15_Second_Song_of_the_Feast.krn
N: Derived from No_15_Second_Song_of_the_Feast.krn
%%abc-version 2.0
%%abcx-abcm2ps-target-version 5.9.1 (29 Sep 2008)
%%abc-creator hum2abc beta
%%abcx-conversion-date 2019/03/15 08:29:13
%%humdrum-veritas 2665247095
%%humdrum-veritas-data 1796301259
%%linebreak <none>
%%barnumbers 0
L: 1/8
M: 3/4
K: F clef=bass
C [I:setbarnb 1]| 
(3CCCC2C3/A,/ | 
(3F,G,G,G,2G,3/A,/ | 
(3A,A,A,G,2G,F, ||  
[M:4/4](3D,F,F,F,2F,2F,3/G,/ ||  
[M:3/4](3G,A,G,F,2F,3/D,/ | 
(3C,D,D,D,2D,3/F,/ | 
(3F,F,D,C,2C,3/C,/ | 
(3=B,,C,C,C,2C,3/C,/ | 
(3C,D,C,C,2C,3/G,,/ | 
(3F,,F,,F,,F,,2F,, z |]  



